src/front_assets/svg/whatsapp.svg

<svg fill="none" xmlns="http://www.w3.org/2000/svg" viewBox="0 0 28 29" class="design-iconfont">
  <path fill="#00A500" d="M14 0.5A14 14 0 1 0 14 28.5A14 14 0 1 0 14 0.5Z"/>
  <path fill-rule="evenodd" clip-rule="evenodd" d="M13.9977 6.66064H14.0024C18.3244 6.66064 21.84 10.1775 21.84 14.5006C21.84 18.8238 18.3244 22.3406 14.0016 22.3406C12.468 22.3435 10.9678 21.8929 9.68958 21.0455L6.67608 22.0086L7.65294 19.0957C6.68034 17.7612 6.15748 16.1519 6.16001 14.5006C6.16001 10.1773 9.67566 6.66064 13.9977 6.66064ZM17.0249 18.8381C17.6233 18.7092 18.3749 18.2664 18.5641 17.7319C18.7528 17.1972 18.7532 16.7409 18.6979 16.6441C18.6539 16.567 18.5478 16.516 18.3906 16.4404C18.3504 16.421 18.3069 16.4001 18.2603 16.3768C18.0309 16.2619 16.9102 15.7084 16.6981 15.6347C16.4908 15.5565 16.293 15.5841 16.1362 15.8054C16.1065 15.847 16.0768 15.8887 16.0473 15.9302C15.8577 16.1965 15.6749 16.4532 15.5233 16.6167C15.3851 16.764 15.1591 16.7825 14.9704 16.7041C14.95 16.6956 14.9265 16.6861 14.9003 16.6755C14.6014 16.5548 13.9368 16.2863 13.1319 15.5704C12.4543 14.9667 11.9937 14.2155 11.8603 13.9895C11.7288 13.7629 11.8426 13.6297 11.9472 13.5071C11.949 13.5051 11.9507 13.5031 11.9524 13.501C12.0184 13.4192 12.0829 13.3509 12.1475 13.2823C12.1957 13.2313 12.244 13.18 12.2932 13.123C12.3015 13.1133 12.3096 13.104 12.3174 13.095C12.4178 12.9789 12.4783 12.909 12.5467 12.7635C12.6251 12.6114 12.5704 12.4548 12.5145 12.3394C12.4734 12.2544 12.213 11.6226 12.003 11.113C11.9277 10.9304 11.8588 10.7634 11.8089 10.643C11.657 10.279 11.5418 10.2651 11.3115 10.2557C11.2331 10.2512 11.1466 10.2467 11.0486 10.2467C10.7491 10.2467 10.4359 10.3343 10.2468 10.5279C10.2404 10.5345 10.2337 10.5413 10.2267 10.5483C9.98504 10.794 9.44516 11.3427 9.44516 12.436C9.44516 13.5273 10.2173 14.5837 10.3641 14.7845C10.3686 14.7907 10.3725 14.796 10.3758 14.8005C10.3845 14.812 10.401 14.8358 10.425 14.8706C10.7198 15.2974 12.1483 17.3657 14.2787 18.2482C16.0803 18.9949 16.6148 18.9255 17.0249 18.8381Z" fill="#fff"/>
</svg>

<svg xmlns="http://www.w3.org/2000/svg" fill="none" class="design-iconfont" viewBox="0 0 28 29"><path fill="#00A500" d="M14 .5a14 14 0 1 0 0 28 14 14 0 1 0 0-28"/><path fill="#fff" fill-rule="evenodd" d="M13.998 6.66h.004c4.322 0 7.838 3.518 7.838 7.84 0 4.324-3.516 7.84-7.838 7.84a7.78 7.78 0 0 1-4.312-1.294l-3.014.963.977-2.913A7.8 7.8 0 0 1 6.16 14.5c0-4.324 3.516-7.84 7.838-7.84m3.027 12.178c.598-.129 1.35-.572 1.54-1.106.188-.535.188-.991.133-1.088-.044-.077-.15-.128-.307-.204l-.13-.063c-.23-.115-1.35-.669-1.563-.742-.207-.079-.405-.05-.562.17l-.089.125c-.19.267-.372.523-.524.687-.138.147-.364.165-.553.087l-.07-.029c-.299-.12-.963-.389-1.768-1.105-.678-.603-1.138-1.354-1.272-1.58-.131-.227-.017-.36.087-.483l.005-.006c.066-.082.13-.15.196-.219a5 5 0 0 0 .145-.159l.024-.028c.1-.116.161-.186.23-.332.078-.152.023-.308-.033-.424a73 73 0 0 1-.511-1.226l-.194-.47c-.152-.364-.267-.378-.497-.387a5 5 0 0 0-.263-.01c-.3 0-.613.088-.802.282l-.02.02c-.242.246-.782.795-.782 1.888 0 1.091.772 2.148.92 2.348l.01.016q.014.018.05.07c.295.427 1.723 2.496 3.854 3.378 1.801.747 2.336.677 2.746.59" clip-rule="evenodd"/></svg>
